X: 2100
T: Çiçeklerin Gülüyor
C: Sadettin Kaynak
O: Turkey
F: http://compmusic.upf.edu/node/140
N: hicazkar--sarki--duyek--ciceklerin_guluyor--sadettin_kaynak
N: makam= hicazkar
N: form= sarki
N: usul= duyek = 8/4
M: 8/4
L: 1/16
K: C _1/4B _7/8e _7/8A ^f
Q: 1/4=114
%%MIDI tuningsystem comma53
g8 g8  | a3/2g/ fa af a2 fa2f a2 ga  | \
w:   |   | 
c'2 b2 ba gf b2 a2 ag fe  | 
w:   | 
g8 zd e=f g2 fe  | d8 zc de =f2 de  | \
w:   |   | 
za gf ed cB zG AB GA Bc  | 
w:   | 
_7/8d2 cB c2 BA B2 AG A2 GF  | G2 zG zA GF GF E2 G4  | 
w:   |   | 
g8 g8  | a3/2g/ fa af a2 fa2f a2 ga  | \
w:   |   | 
c'2 b2 ba gf b2 a2 ag fe  | 
w:   | 
g8 zd e=f g2 fe  | d8 zc de =f2 de  | \
w:   |   | 
za gf ed cB zG AB GA Bc  | 
w:   | 
_7/8d2 cB c2 BA B2 AG A2 GF  | G2 zG zA GF GF E2 G4  | 
w:   |   | 
z2 fg g2 a2 b2 ag g4  | z2 fg a4 z2 ga b2 a2  | \
w:   |   | 
g2 c'2 ga ag g3f ec' ba  | 
w:   | 
ga gf ef ed c3/2B/ c2 z2 ga  | a2 ag g3f fe ed d6 c/B/c de ed dc B2 z2 G2  | 
w:   |   | 
A2 B2 c4 BA GF G2 dd  | dd d2 d3/2_B/ cB d4 z2 c4 d2 (3dcd (3ede (3=fef g2 z2 g2  | 
w:   |   | 
=fe ed d4 a3/2g/ a2 z2 a2  | g2 =f2 _b2 a2 g2 f2 ee d2  | \
w:   |   | 
e2 =fg fe dc d4 z2 Bc  | 
w:   | 
c4 Bc de dc B2 z2 GA  | A4 GA Bc BA G2 z2 Bc  | 
w:   |   | 
c4 Bc de dc B2 z2 GA  | A4 GA Bc BA G2 g8 g8 z2 g2  | 
w:   |   | 
z4 g3f e3g g8 g8 z2 g2  | z4 g3f e3g z2 c'2  | \
w:   |   | 
b2 a2 b2 ag a2 gf g2 fe  | 
w:   | 
f2 ed e2 dc d2 cB cd ef  | ga gf g8 z2 g2  | \
w:   |   | 
z4 g3f e2 g2 z2 g4 f2 e4 g4 z2 g2  | 
w:   | 
z4 g3f e2 g2 z2 g4 f2 e4 g4 z2 f4 g2 a3g a4 z2 f4 a2 g3f e4 z2 b4 a2 g2 f2 e2 d2 c2 d4 f2 e2 d2 c4 z2 b4 a2 g2 f2 e2 d2 c2 d4 f2 e2 d2 c4 z2 d4 e2 =f2 e2 f4 z2 d4 f2 e2 d2 e4 z2 d4 e2 f2 e2 f4 z2 d4 f2 e2 d2 e4 z2 g4 g2 g8 g8 g4 f2 e2 d2 d4 e2 f4 f4 f8 f4 e2 d2 c2 B4 c2 _7/8d4 c2 B2 A2 c2  | 
w:   | 
B2 A2 G8 z2 c2  | c2 B2 c2 d2 e3d c2 de  | \
w:   |   | 
fd ec dB cA BA G2 z2 c2  | 
w:   | 
c2 B2 c2 d2 e3d c2 de  | fd ec ed ed g2 g2 zf4g2a4g4f2e4f gf ed ed4z2B cc4B cd ed cB2z2G AA4G AB cB AG2z2B cc4B cd ed cB2z2G AA4G AB cB AG2g8g8z2g2z4g3 fe3 gg8g8z2g2z4g3 fe3 gz2c'2b2a2b2a ga2g fg2f ef2e de2d cd2c Bc de fg  | 
w:   |   | 
ag fg8z2g2z4g3 fe2g2z2g4f2e4g4z2g2z4g3 fe2g2z2g4f2e4g4z2f4g2a3 ga4z2f4a2g3 fe4z2b4a2g2f2e2d2c2d4f2e2d2c4z2b4a2g2f2e2d2c2d4f2e2d2c4z2d4e2=f2e2f4z2d4f2e2d2e4z2d4e2f2e2f4z2d4f2e2d2e4z2g4g2g8g8g4f2e2d2d4e2f4f4f8f4e2d2c2B4c2_7/8d4c2B2A2c2B2A2G8z2c2c2B2c2=d2e3 dc2d e^f  | 
w:   | 
de cd Bc AB AG2z2c2c2B2c2d2e3 dc2d ef  | 
w:   | 
de ce de dg2g2z f4  | g2 a4 g4 f2 e4  | \
w:   |   | 
fg fe de d4 |
w:   | 


